X: 10041
Q: "March."
M: C|
L: 1/8
K: C
c2c>c c2(ed) | c>GEG c2(cd) |\
e2e>e e2(gf) | e>dcd e2(ef) |\
g2g>g g2(ag) | f2f>f f2(gf) |\
e>dcd egfe | d2d>d d2 :|
|: (d/c/B/A/) |\
c>dc>d e>fe>f | g>ag>a _b2(ag) |\
a>f (de/f/) ge (cd/e/) | fedc cBAG |\


